src/assets/healthPage/GeneralAndPreventive/maximize.svg

<svg height="40" viewBox="0 0 40 40" width="40" xmlns="http://www.w3.org/2000/svg"><g fill="none" fill-rule="evenodd"><circle cx="20" cy="20" fill="#faece9" r="20"/><path d="m10.8333333 0c5.9735 0 10.8333334 4.85983333 10.8333334 10.8333333 0 5.9735-4.8598334 10.8333334-10.8333334 10.8333334-5.97349997 0-10.8333333-4.8598334-10.8333333-10.8333334 0-5.97349997 4.85983333-10.8333333 10.8333333-10.8333333zm0 1.56361111c-5.11116663 0-9.26972219 4.15831482-9.26972219 9.26972219 0 5.1111667 4.15831482 9.2697223 9.26972219 9.2697223 5.1114074 0 9.269963-4.1583149 9.269963-9.2697223 0-5.11140737-4.1583148-9.26972219-9.269963-9.26972219zm.5926556 9.20914579c.1743986 0 .3389389.0680695.4624028.1905945l3.0577264 3.0560833v-2.0768222c0-.3595944.2924638-.6520583.6520583-.6520583.3593597 0 .6518236.2924639.6518236.6520583v3.6513389c0 .3617069-.2943417.6560486-.6558139.655814h-3.6513389c-.3593597 0-.6518236-.292464-.6518236-.6518237 0-.3595945.2924639-.6520584.6518236-.6520584h2.0772917l-3.0560833-3.0577264c-.1229945-.1232291-.1908292-.2873-.1908292-.4624027 0-.1748681.0676-.3391736.1908292-.4621681.1232291-.1229944.2870652-.1908292.4619333-.1908292zm-2.60893751-6.25886801c.35959444 0 .65229305.29246389.65229305.65205833 0 .35959445-.29269861.65205834-.65205833.65205834h-2.07682222l3.05584861 3.05561388c.12299444.12299445.19082917.28683056.19082917.46122917s-.06783473.33823472-.19082917.46122917c-.12299444.12299444-.28659583.19082916-.46075972.19082916-.17392917 0-.33776528-.0676-.46146389-.19035972l-3.05608333-3.05608333v2.07682222c0 .35935972-.29246389.65205833-.65205834.65205833-.35959444 0-.65205833-.29269861-.65205833-.65205833v-3.65133889c0-.35959444.29246389-.65205833.65205833-.65205833z" fill="#f05024" transform="translate(9.166667 9.166667)"/></g></svg>

<?xml version="1.0" encoding="UTF-8"?>
<svg width="40px" height="40px" viewBox="0 0 40 40" version="1.1" xmlns="http://www.w3.org/2000/svg" xmlns:xlink="http://www.w3.org/1999/xlink">
    <title>Group 2</title>
    <g id="Design" stroke="none" stroke-width="1" fill="none" fill-rule="evenodd">
        <g id="Health---General-Preventive" transform="translate(-295.000000, -7346.000000)">
            <g id="Group-5" transform="translate(-646.000000, 6476.000000)">
                <g id="Group-2" transform="translate(941.000000, 870.000000)">
                    <circle id="Oval" fill="#FAECE9" cx="20" cy="20" r="20"></circle>
                    <g id="Icons/chat-Copy" transform="translate(9.166667, 9.166667)" fill="#F05024">
                        <path d="M10.8333333,0 C16.8068333,0 21.6666667,4.85983333 21.6666667,10.8333333 C21.6666667,16.8068333 16.8068333,21.6666667 10.8333333,21.6666667 C4.85983333,21.6666667 0,16.8068333 0,10.8333333 C0,4.85983333 4.85983333,0 10.8333333,0 Z M10.8333333,1.56361111 C5.72216667,1.56361111 1.56361111,5.72192593 1.56361111,10.8333333 C1.56361111,15.9445 5.72192593,20.1030556 10.8333333,20.1030556 C15.9447407,20.1030556 20.1032963,15.9447407 20.1032963,10.8333333 C20.1032963,5.72192593 15.9449815,1.56361111 10.8333333,1.56361111 Z M11.4259889,10.7727569 C11.6003875,10.7727569 11.7649278,10.8408264 11.8883917,10.9633514 L11.8883917,10.9633514 L14.9461181,14.0194347 L14.9461181,11.9426125 C14.9461181,11.5830181 15.2385819,11.2905542 15.5981764,11.2905542 C15.9575361,11.2905542 16.25,11.5830181 16.25,11.9426125 L16.25,11.9426125 L16.25,15.5939514 C16.25,15.9556583 15.9556583,16.25 15.5941861,16.2497654 L15.5941861,16.2497654 L11.9428472,16.2497654 C11.5834875,16.2497654 11.2910236,15.9573014 11.2910236,15.5979417 C11.2910236,15.2383472 11.5834875,14.9458833 11.9428472,14.9458833 L11.9428472,14.9458833 L14.0201389,14.9458833 L10.9640556,11.8881569 C10.8410611,11.7649278 10.7732264,11.6008569 10.7732264,11.4257542 C10.7732264,11.2508861 10.8408264,11.0865806 10.9640556,10.9635861 C11.0872847,10.8405917 11.2511208,10.7727569 11.4259889,10.7727569 Z M8.81705139,4.51388889 C9.17664583,4.51388889 9.46934444,4.80635278 9.46934444,5.16594722 C9.46934444,5.52554167 9.17664583,5.81800556 8.81728611,5.81800556 L8.81728611,5.81800556 L6.74046389,5.81800556 L9.7963125,8.87361944 C9.91930694,8.99661389 9.98714167,9.16045 9.98714167,9.33484861 C9.98714167,9.50924722 9.91930694,9.67308333 9.7963125,9.79607778 C9.67331806,9.91907222 9.50971667,9.98690694 9.33555278,9.98690694 C9.16162361,9.98690694 8.9977875,9.91930694 8.87408889,9.79654722 L8.87408889,9.79654722 L5.81800556,6.74046389 L5.81800556,8.81728611 C5.81800556,9.17664583 5.52554167,9.46934444 5.16594722,9.46934444 C4.80635278,9.46934444 4.51388889,9.17664583 4.51388889,8.81728611 L4.51388889,8.81728611 L4.51388889,5.16594722 C4.51388889,4.80635278 4.80635278,4.51388889 5.16594722,4.51388889 L5.16594722,4.51388889 Z" id="Combined-Shape"></path>
                    </g>
                </g>
            </g>
        </g>
    </g>
</svg>
